X: 14089
T: SILAS' HORNPIPE
C: Bob McQuillen Nov'08
B: Bob's Note Book 14 #89
%R: hornpipe, reel
%D:2008
Z: 2020 John Chambers <jc:trillian.mit.edu>
M: C
L: 1/8
K: D
AG \
| FABd ABAG | FAde f2ef | g2eg fAdf | gfed cBAG |
| FABd ABAG | FAde fded | cAef gece | d2f2 d2  :|
|: fg \
| afde fdAG | FDFA d2fa | gfed cAdf | g2e2 e2FG |
| AFAd BAdB | Adfa fdef | gfed ceag | f2d2 d2  :|
%%begintext align
%% Silas is Amy Larkin's
%% son, and she usually brings him along to the
%% Peterborough dance when she plays there. He's a
%% real nice kid, and so, here's a tune, just for
%% you, Silas. Hope you like it!
%%endtext

%%sep 1 1 500

%%sep 1 1 500

